X:191
T: ES WAR EINMAL EIN GAERTNER, DER SANG EIN TRAURIG LIED
N: Z0190
O: Europa, Mitteleuropa, Deutschland, Schwaben
R: Staende -, Gaertner - Lied; Romanze, Tod; 264-5 muss ueberprueft werden! ++
M: 4/4
L: 1/8
K: F
c2c2f2 | d2cBB2A2 | z2
c2c2f2 | d2cBB2A2 | z2
c2f2f2 | f2eddcc
c | d3dd2cB | BAAAA4 | f2
A2A2f2 | c3BB2A2 | BAGAG3z

@@@ Tune index: 9949
